build/svg/sw/res/nc20008.svg

<?xml version="1.0" encoding="UTF-8" standalone="no"?>
<svg
   xmlns:dc="http://purl.org/dc/elements/1.1/"
   xmlns:cc="http://creativecommons.org/ns#"
   xmlns:rdf="http://www.w3.org/1999/02/22-rdf-syntax-ns#"
   xmlns:svg="http://www.w3.org/2000/svg"
   xmlns="http://www.w3.org/2000/svg"
   xmlns:sodipodi="http://sodipodi.sourceforge.net/DTD/sodipodi-0.dtd"
   xmlns:inkscape="http://www.inkscape.org/namespaces/inkscape"
   viewBox="0 0 16 16"
   version="1.1"
   id="svg6"
   sodipodi:docname="nc20008.svg"
   inkscape:version="0.92.5 (2060ec1f9f, 2020-04-08)"
   inkscape:export-filename="/home/jupiter007/Libreoffice yaru theme fullcolor/build/sw/res/nc20008.png"
   inkscape:export-xdpi="95"
   inkscape:export-ydpi="95">
  <metadata
     id="metadata12">
    <rdf:RDF>
      <cc:Work
         rdf:about="">
        <dc:format>image/svg+xml</dc:format>
        <dc:type
           rdf:resource="http://purl.org/dc/dcmitype/StillImage" />
      </cc:Work>
    </rdf:RDF>
  </metadata>
  <defs
     id="defs10" />
  <sodipodi:namedview
     pagecolor="#ffffff"
     bordercolor="#666666"
     borderopacity="1"
     objecttolerance="10"
     gridtolerance="10"
     guidetolerance="10"
     inkscape:pageopacity="0"
     inkscape:pageshadow="2"
     inkscape:window-width="1920"
     inkscape:window-height="1011"
     id="namedview8"
     showgrid="true"
     inkscape:zoom="29.5"
     inkscape:cx="-10.071147"
     inkscape:cy="7.5812458"
     inkscape:window-x="1920"
     inkscape:window-y="32"
     inkscape:window-maximized="1"
     inkscape:current-layer="svg6">
    <inkscape:grid
       type="xygrid"
       id="grid832" />
  </sodipodi:namedview>
  <path
     sodipodi:nodetypes="cccscsccccccccscscccccc"
     inkscape:connector-curvature="0"
     id="path4237-1"
     d="M 5,1 C 3.7418,1.0145 2.821109,0.969396 2.068359,1.3847658 1.6919894,1.5924257 1.3951284,1.9441527 1.2304684,2.3828125 1.0657984,2.8214825 1.0058594,3.3424 1.0058594,4 v 1.4882808 5.5124432 c 0,0.65761 0.0599,1.178577 0.224609,1.617188 0.16468,0.438611 0.461531,0.788524 0.8378906,0.996093 C 2.821079,14.029135 3.7419,13.985654 5,14.000724 h 0.002 6.005787 0.0039 c 1.25819,-0.0145 2.178891,0.0306 2.931641,-0.384766 0.37637,-0.20766 0.673221,-0.559386 0.837891,-0.998046 0.164539,-0.438671 0.224618,-0.959578 0.224618,-1.617188 V 5.466797 4 c 0,-0.6576 -0.0599,-1.1785776 -0.224609,-1.6171875 C 14.616548,1.9442126 14.319697,1.5942788 13.943337,1.3867189 13.190567,0.9715888 12.269736,1.0150802 11.011646,1 h -0.002 -6.005787 z"
     style="font-style:normal;font-variant:normal;font-weight:normal;font-stretch:normal;font-size:15px;line-height:125%;font-family:Ubuntu;-inkscape-font-specification:Ubuntu;text-align:center;letter-spacing:0px;word-spacing:0px;writing-mode:lr-tb;text-anchor:middle;display:inline;opacity:0.6;fill:#000000;fill-opacity:1;stroke:none;stroke-width:0.99980211" />
  <path
     inkscape:connector-curvature="0"
     id="path1993"
     d="M 4.9888592,2.0271848 C 3.4322782,2.0379808 4.879238,2.0154328 3.329287,2.0659598 2.868058,2.1086278 2.313099,2.2723791 2.173947,2.7759264 1.954953,3.4112729 2.065533,4.1097136 2.028151,4.7578508 c -0.0078,2.297085 -0.02297,4.5965692 0.02152,6.8859212 0.0391,0.461929 0.202551,1.012666 0.698756,1.163666 0.632456,0.225082 1.284144,0.12274 1.935974,0.154298 1.424235,0.0068 -0.1498058,0.01102 1.2760512,0.01131 1.7045315,3.5e-4 4.4086848,-0.005 6.1074868,-0.01851 0.511911,-0.01201 1.183699,0.01993 1.584745,-0.405191 0.421097,-0.539783 0.287073,-1.268021 0.322745,-1.903787 0.01187,-2.4443242 0.02769,-4.9112362 -0.0219,-7.3569355 C 13.904249,2.8865822 13.783537,2.4256705 13.37839,2.2441474 12.710221,1.95005 11.952185,2.0761285 11.252469,2.0385746 9.4980617,2.0267721 6.7432982,2.0260902 4.9888592,2.0271848 Z"
     style="opacity:1;vector-effect:none;fill:#ffffff;fill-opacity:1;stroke:none;stroke-width:1;stroke-linecap:round;stroke-linejoin:bevel;stroke-miterlimit:4;stroke-dasharray:none;stroke-dashoffset:0;stroke-opacity:1"
     sodipodi:nodetypes="cccccccsccccccc" />
  <path
     d="m 5,6 v 1 l 8,-2e-7 v -1 z"
     id="path2-1"
     style="fill:#000000;fill-opacity:1"
     inkscape:connector-curvature="0"
     sodipodi:nodetypes="ccccc" />
  <path
     style="opacity:1;fill:#fa9381;fill-opacity:1;stroke:none;stroke-width:1.69030845;stroke-linecap:round;stroke-linejoin:round;stroke-miterlimit:4;stroke-dasharray:none;stroke-opacity:1"
     d="M 2.9882812 4 L 2.9882812 5 L 3 5 L 3 10 L 3 11 L 8 11 L 8 10 L 4 10 L 4 5 L 7.9882812 5 L 7.9882812 4 L 2.9882812 4 z "
     id="rect848" />
  <path
     sodipodi:nodetypes="ccccc"
     inkscape:connector-curvature="0"
     style="fill:#000000;fill-opacity:1"
     id="path839"
     d="m 5,8 v 1 l 8,-2e-7 v -1 z" />
</svg>

<svg xmlns="http://www.w3.org/2000/svg" viewBox="0 0 16 16"><path d="M5 1c-1.258.014-2.179-.03-2.932.385a1.88 1.88 0 00-.838.998c-.164.438-.224.96-.224 1.617V11.001c0 .657.06 1.178.224 1.617.165.439.462.788.838.996.753.415 1.674.372 2.932.387h6.012c1.258-.015 2.179.03 2.931-.385a1.88 1.88 0 00.838-.998c.165-.439.225-.96.225-1.617V4c0-.658-.06-1.179-.225-1.617a1.875 1.875 0 00-.838-.996C13.191.972 12.27 1.015 11.012 1H5.004z" style="line-height:125%;-inkscape-font-specification:Ubuntu;text-align:center" font-weight="400" font-size="15" font-family="Ubuntu" letter-spacing="0" word-spacing="0" text-anchor="middle" opacity=".6"/><path d="M4.989 2.027c-1.557.011-.11-.012-1.66.039-.46.043-1.016.206-1.155.71-.219.635-.108 1.334-.146 1.982-.008 2.297-.023 4.596.022 6.886.039.462.202 1.012.698 1.163.633.226 1.285.123 1.936.155 1.425.007-.15.01 1.276.011 1.705 0 4.41-.005 6.108-.018.512-.012 1.184.02 1.585-.406.42-.54.287-1.268.322-1.903.012-2.445.028-4.912-.021-7.357-.05-.402-.17-.863-.576-1.045-.668-.294-1.426-.168-2.126-.205-1.754-.012-4.509-.013-6.263-.012z" fill="#fff"/><path d="M5 6v1h8V6z"/><path d="M2.988 4v1H3v6h5v-1H4V5h3.988V4h-5z" fill="#fa9381"/><path d="M5 8v1h8V8z"/></svg>
